X: 19265
T: Ivory Flute, The
R: jig
M: 6/8
K: Amajor
|:efe ~A3|fec ecB|~A3 fec|ecB Bcd|
efe ~A3|fec efa|~A3 fec|ecB Bcd:|
|:efa b2c'|baf efa|~A3 ~A3|fec ecB|
efe b2c'|baf efa|A3 fec|1 ecB Bcd:|2 B2E Bcd||

